!!!SOCIAL_FUNCTION: stomp dance songs
!!!PDT:	1943
!!!LING_GROUP: Muskogean
!!!LANG: Non-Tone
Specific Region: Oklahoma, California, Mississippi, Louisiana, Texas, Alabama
!!!REG: Southeast
!!!COM: Anon.
!!!OTL: Stomp Dance Song (j)
!!!ODT: <1933//
!!!MPN: Lysander Tubby
!!!MLC: Philadelphia, Mississippi, United States of America
!! Song was recorded in January 1933.
!!!AGN: monody
!!!AMT: irregular; mostly in simple duple
!!!RWG: Transcribed pitches, durations, and meters are only approximate.
**kern
*ICvox
*Imale
*clefF4
*k[b-d-a-d-]
*M2/4
*MM108
*[A,B,B,C]
*>A
=1-
8F
8F
4F
=2
4A-
4A-
=3
4A-
4F
=4
4.A-
8F
=5
4r
8F
8r
=6
8F
8F
4F
=7
4A-
4A-
=8
4F
4F
=9
4.A-
8F
=10
4r
8F
8r
*>B
=!|:11
8F
8F
4F
=12
4A-
4A-
=13
4.c
8B-
=14
8A-
8A-
4A-
=15
8F
8F
8F
8r
=16
4B-
4B-
=17
8B-
8c
4c
=18
4.A-
8F
=19
4r
8F
8r
=20
8F
8F
4F
=21
4A-
4A-
=22
4B-
4F
=23
4.A-
8F
=24
4r
8F
8r
=25
8F
8F
4F
=26
4A-
4A-
=27
4B-
4F
=28
4.A-
8F
=29
4r
8F
8r
*>C
=:|!30
8F
8F
4F
=31
!! ritard
4A-
8.A-
16F
*MM76
=32
4F
8.A-
16A-
*M3/4
=33
8.A-
16F
4F
8F
8r
*M2/4
*MM108
=34
8F
8F
4F
=35
4A-
4A-
=36
4B-
4F
=37
4.A-
8F
=38
4F
4r
=39
8F
8F
4F
=40
4A-
4A-
=41
*MM76
16B-
8.B-
8.B-
16B-
*M3/4
=42
8.A-
16F
4F
8F
8r
*M2/4
*MM108
=43
8F
8F
4F
=44
4A-
4A-
=45
4B-
4F
=46
4.A-
8F
=47
4F
8F
8r
==
*-
!!!CNT: Choctaw
!!!TXO: Choctaw
!!!OCY: United States
!!!OCL: Frances Densmore
!!!YOR: Frances Densmore, "Choctaw Music"
!!!YOR: Bulletin 136, page 170, No. 53
!!!PPR: Smithsonian Institution, Bureau of American Ethnology
!!!PPR: Government Printing Office
!!!PDT: 1943
!!!PPP: Washington, DC, United States of America
!!!YEC: Electronic Copyright 2000 David Huron
!!!YER: August 2000
!!!YEN: United States of America
!!!ENC: David Huron
!!!RDT: August 29, 2000
!!!EEV: Release 1.0
!!!AIN: vox
